source/images/logo-desktop.svg

<svg width="70" height="59" viewBox="0 0 70 59" fill="none" xmlns="http://www.w3.org/2000/svg">
<g id="logo pic">
<path id="Vector" d="M59.7434 23.8063C58.0235 19.7092 55.2535 16.1318 51.7097 13.4305C48.1658 10.7293 43.9717 8.99857 39.5455 8.41088C35.1192 7.82319 30.6153 8.39905 26.4827 10.0811C22.35 11.7631 18.7329 14.4925 15.9918 17.9973C13.2507 21.5021 11.4814 25.6599 10.8601 30.0564C10.2388 34.4529 10.7873 38.9344 12.4509 43.0545C14.1145 47.1745 16.8351 50.7892 20.3416 53.5382C23.8482 56.2872 28.0181 58.0746 32.4359 58.7223C31.8572 56.6491 31.2685 54.3578 30.7497 51.9275C32.259 52.9009 33.8476 53.747 35.4989 54.457C35.4989 54.457 35.6186 56.5995 35.7782 58.9901C37.5624 59.0207 39.3448 58.8644 41.0961 58.5239C41.0508 58.2746 41.0508 58.0193 41.0961 57.77C41.3854 55.9151 42.1836 52.5723 42.3432 50.4198C43.4939 49.3498 44.47 48.1082 45.2366 46.7397L45.1767 47.1762C44.628 51.4018 43.4806 55.9151 42.7822 57.1649C42.5561 57.5786 42.2778 57.962 41.9541 58.3056C45.5656 57.4633 48.9497 55.8502 51.8717 53.5781C54.7937 51.3059 57.1837 48.4292 58.876 45.1473C60.5683 41.8653 61.5224 38.2568 61.6722 34.5717C61.822 30.8867 61.1638 27.2133 59.7434 23.8063ZM58.2768 27.5657C57.8378 27.9923 56.9299 28.2799 56.7802 26.9904C56.6305 25.7009 56.5906 24.7983 56.5906 24.7983C56.5906 24.7983 54.665 21.3959 53.9467 21.3563C53.2283 21.3166 48.13 24.7983 46.7831 26.3159C45.6157 27.5955 45.3863 27.5062 45.3863 29.7579C45.3863 31.4541 45.6058 37.862 45.486 42.7621L37.3546 44.9146C34.7988 45.6438 32.1997 46.2137 29.5724 46.6207L28.5747 40.8378H28.435L25.8709 27.774C25.8709 27.774 22.0696 26.3457 20.6728 25.9588C20.0169 25.6735 19.2926 25.5808 18.5855 25.6915C17.8783 25.8023 17.2178 26.1118 16.6819 26.5837C16.1352 27.0597 15.698 27.6471 15.4001 28.3061C15.1023 28.9651 14.9507 29.6802 14.9558 30.4027C15.1667 30.8637 15.3273 31.3459 15.4347 31.841C15.4846 32.3171 14.2375 32.2675 13.4393 32.2675C12.6411 32.2675 12.5214 30.8391 13.15 29.1627C13.6403 27.8737 14.2482 26.632 14.9658 25.4529C15.5056 24.3997 16.2018 23.4333 17.0311 22.5862C17.0311 22.5862 17.1708 22.249 18.2782 22.3482C19.3857 22.4474 25.5416 22.7747 25.5416 22.7747L25.5915 20.523C32.2826 19.6045 39.0309 19.1603 45.7853 19.1938C45.7853 19.7989 45.7853 20.404 45.7853 21.0091C48.3438 19.8483 51.0986 19.1754 53.9068 19.0252C54.057 19.0214 54.2059 19.0548 54.34 19.1223C54.474 19.1898 54.5892 19.2894 54.675 19.4121C55.0142 19.8386 57.0795 22.3879 57.319 22.7549C57.9896 23.7078 58.5995 24.7017 59.1448 25.7307C58.9579 26.3822 58.6646 26.9988 58.2768 27.5558V27.5657Z" fill="#FDC305"/>
<path id="Vector_2" d="M56.3312 21.4951C56.8001 22.0903 57.2092 22.616 57.3289 22.7747C57.9996 23.7277 58.6094 24.7215 59.1547 25.7505C58.9649 26.3806 58.6753 26.9767 58.2967 27.5161C57.8577 27.9427 56.9498 28.2303 56.8001 26.9408C56.6505 25.6513 56.5906 24.7983 56.5906 24.7983C56.5906 24.7983 54.665 21.3959 53.9467 21.3563C53.2283 21.3166 48.13 24.7983 46.783 26.3159C45.6157 27.5955 45.3862 27.5062 45.3862 29.7579C45.3862 31.2458 45.5558 36.3542 45.5159 40.8973C47.3218 41.0957 49.9757 41.5916 50.7739 42.7621C50.7739 42.7621 50.4846 35.64 58.5661 39.3697C58.5661 39.3697 58.8455 29.6587 70 32.1485C66.2081 27.7223 61.5597 24.0994 56.3312 21.4951Z" fill="#F06351"/>
<path id="Vector_3" d="M45.8252 19.1938C45.8658 13.6973 45.3982 8.2087 44.4284 2.79724C44.4284 2.79724 44.2788 1.50773 43.5604 2.55918C42.9676 3.81617 42.5642 5.15308 42.3631 6.5269C38.0981 6.25483 33.817 6.36771 29.5724 6.86415C28.7543 4.13635 27.3575 2.89643 26.689 3.22377C26.0205 3.55111 25.9407 6.4773 25.9407 6.4773L25.6115 20.523C32.3091 19.6036 39.0641 19.1594 45.8252 19.1938Z" fill="#F06351"/>
<path id="Vector_4" d="M45.2458 46.7397C45.3755 45.6784 45.4453 44.2698 45.4852 42.7125L37.3542 44.865C34.7996 45.611 32.2006 46.1974 29.5724 46.6207L30.6798 51.5804C30.6798 51.6895 30.6798 51.7986 30.7496 51.9077C32.2589 52.8811 33.8474 53.7272 35.4985 54.4371C37.9116 53.2903 40.2099 51.9186 42.3625 50.3404V50.4C43.5079 49.3352 44.4805 48.1005 45.2458 46.7397Z" fill="#E55645"/>
<path id="Vector_5" d="M31.927 16.0891C31.8771 15.9899 32.9247 16.7636 33.3337 17.0017C33.7428 17.2397 33.9423 17.4183 33.9423 17.5869C33.9423 17.7556 33.6829 17.9242 33.3238 17.9242C32.9646 17.9242 32.4059 17.8051 32.3261 17.6663C32.2463 17.5274 32.9247 17.6663 33.2639 17.6663H33.5532C32.939 17.2195 32.3915 16.6885 31.927 16.0891Z" fill="black"/>
<path id="Vector_6" d="M39.4099 16.1982C39.4099 16.1982 38.4122 17.4679 38.3224 17.5274C38.2326 17.5869 38.1528 17.8647 38.512 17.8151C38.9243 17.7539 39.3312 17.661 39.7291 17.5373C39.8389 17.4778 39.799 17.3389 39.6094 17.3588C39.4199 17.3786 38.931 17.4084 38.6117 17.4679L39.4598 16.2081C39.4598 16.2081 39.4897 16.0891 39.4099 16.1982Z" fill="black"/>
<path id="Vector_7" d="M36.277 22.2589C36.7395 22.0563 37.1217 21.7077 37.3645 21.267C37.6438 20.6123 37.3645 20.3643 36.9255 20.275C36.3216 20.1655 35.6983 20.2859 35.1796 20.6123C34.7905 20.9793 34.8404 21.3364 35.1796 21.6042C35.5166 21.867 35.8852 22.0869 36.277 22.2589Z" fill="black"/>
<path id="Vector_8" d="M35.9177 23.5087C35.8031 23.7337 35.6475 23.9355 35.4587 24.1039C35.1746 24.3312 34.8253 24.4631 34.4611 24.4808C33.9118 24.5344 33.3626 24.3784 32.9247 24.0444C32.7236 23.9274 32.5446 23.7764 32.3959 23.598C32.2961 23.49 32.1734 23.4053 32.0367 23.35C32.0367 23.35 32.785 27.4269 34.6008 28.0815C36.4165 28.7362 36.7557 27.3277 36.8056 26.9507C36.8664 25.8218 36.5811 24.7011 35.9875 23.7369C35.9875 23.4393 35.9676 23.6377 35.9177 23.5087Z" fill="#F06351"/>
<path id="Vector_9" d="M34.2216 24.6395C33.7547 24.5728 33.3063 24.4127 32.9033 24.1689C32.5004 23.9251 32.1513 23.6027 31.8771 23.2211C31.8526 23.1938 31.839 23.1585 31.839 23.1219C31.839 23.0853 31.8526 23.05 31.8771 23.0227C31.8901 23.0095 31.9056 22.999 31.9228 22.9919C31.9399 22.9847 31.9583 22.981 31.9769 22.981C31.9954 22.981 32.0138 22.9847 32.031 22.9919C32.0481 22.999 32.0636 23.0095 32.0766 23.0227C32.3235 23.3671 32.6367 23.6593 32.9981 23.8823C33.3595 24.1054 33.7618 24.2549 34.1817 24.3221C34.5139 24.2973 34.8355 24.1945 35.1199 24.022C35.4044 23.8496 35.6436 23.6125 35.8179 23.3302L35.9576 23.1417L36.0573 23.36C36.0573 23.36 36.4364 24.1138 37.055 24.1535C37.6736 24.1932 38.1125 23.7369 38.6812 22.8739C38.7024 22.8423 38.7353 22.8204 38.7727 22.813C38.8101 22.8055 38.849 22.8132 38.8807 22.8342C38.9125 22.8553 38.9345 22.888 38.942 22.9252C38.9495 22.9624 38.9418 23.001 38.9206 23.0326C38.2555 24.0047 37.627 24.4709 37.035 24.4312C36.8063 24.4011 36.5871 24.3204 36.3938 24.1951C36.2004 24.0698 36.0378 23.9031 35.9177 23.7071C35.7225 23.9781 35.4689 24.2025 35.1755 24.3638C34.8821 24.5251 34.5563 24.6193 34.2216 24.6395Z" fill="black"/>
<path id="Vector_10" d="M36.1771 37.9909C38.2433 37.9909 39.9183 36.3255 39.9183 34.2712C39.9183 32.2168 38.2433 30.5514 36.1771 30.5514C34.1108 30.5514 32.4358 32.2168 32.4358 34.2712C32.4358 36.3255 34.1108 37.9909 36.1771 37.9909Z" fill="#FDC305"/>
<path id="Vector_11" d="M41.1355 31.2458L38.0128 32.5452L39.1601 26.9607L31.6776 36.6419L34.8003 35.3425L33.653 40.937L41.1355 31.2458ZM33.7627 35.0449L37.913 29.6786L37.1049 33.6463L39.1003 32.8329L34.92 38.2092L35.7282 34.2414L33.7627 35.0449Z" fill="#111111"/>
<path id="Vector_12" d="M32.3659 33.5868C32.983 33.5868 33.4833 33.0894 33.4833 32.4758C33.4833 31.8622 32.983 31.3648 32.3659 31.3648C31.7488 31.3648 31.2485 31.8622 31.2485 32.4758C31.2485 33.0894 31.7488 33.5868 32.3659 33.5868Z" fill="#111111"/>
<path id="Vector_13" d="M38.871 37.614C39.3063 37.614 39.6592 37.2631 39.6592 36.8304C39.6592 36.3976 39.3063 36.0467 38.871 36.0467C38.4358 36.0467 38.0829 36.3976 38.0829 36.8304C38.0829 37.2631 38.4358 37.614 38.871 37.614Z" fill="#111111"/>
<path id="Vector_14" d="M39.8288 35.4615C40.0216 35.4615 40.178 35.3061 40.178 35.1143C40.178 34.9226 40.0216 34.7672 39.8288 34.7672C39.6359 34.7672 39.4796 34.9226 39.4796 35.1143C39.4796 35.3061 39.6359 35.4615 39.8288 35.4615Z" fill="#111111"/>
<path id="Vector_15" d="M45.7753 20.9892C43.9742 22.6034 42.278 24.3295 40.6969 26.1572C39.1219 27.9717 37.3445 29.6023 35.399 31.0177C35.1795 30.4919 33.7727 29.5099 33.7727 29.5099C33.7727 29.5099 30.6399 27.3773 28.5846 25.7009C27.4735 24.7809 26.4268 23.7867 25.4517 22.7251L23.4563 22.616C26.3368 26.7991 30.5566 29.8897 35.4289 31.3847C36.287 31.2458 38.7014 29.5298 40.5073 28.1311C42.6438 26.3247 44.6446 24.3654 46.4936 22.2688C46.9906 21.6816 47.376 21.0094 47.631 20.285C46.4936 20.6619 45.7753 20.9892 45.7753 20.9892Z" fill="#F06351"/>
<path id="Vector_16" d="M65.0708 3.47176L56.6305 12.8356L55.4133 10.8616L63.5443 0L65.0708 3.47176Z" fill="#FDC305"/>
<path id="Vector_17" d="M62.507 17.1207L68.0341 13.0439L67.2559 9.33406L61.8685 14.1052L62.507 17.1207Z" fill="#FDC305"/>
<path id="Vector_18" d="M59.7833 48.9716L65.899 52.1259L68.902 49.8048L62.2276 47.077L59.7833 48.9716Z" fill="#FDC305"/>
<path id="Vector_19" d="M1.94543 5.92182L5.00828 2.58894L14.2766 11.5163L13.0595 13.7779L1.94543 5.92182Z" fill="#FDC305"/>
<path id="Vector_20" d="M7.36287 16.1486L2.67383 13.0439L0.279419 16.8827L5.41742 19.2633L7.36287 16.1486Z" fill="#FDC305"/>
<path id="Vector_21" d="M13.878 52.1259L9.33862 55.4489L12.1321 59L16.1427 55.0124L13.878 52.1259Z" fill="#FDC305"/>
<path id="Vector_22" d="M25.8708 27.774C25.8708 27.774 22.0695 26.3457 20.6727 25.9588C20.0169 25.6735 19.2926 25.5808 18.5855 25.6915C17.8783 25.8023 17.2178 26.1118 16.6819 26.5837C16.1351 27.0597 15.6979 27.6471 15.4001 28.3061C15.1022 28.9651 14.9507 29.6802 14.9558 30.4027C15.1667 30.8637 15.3273 31.3459 15.4347 31.841C15.4846 32.3171 14.2374 32.2675 13.4393 32.2675C12.6411 32.2675 12.5214 30.8391 13.1499 29.1627C13.6403 27.8737 14.2481 26.632 14.9658 25.4529C9.52821 28.27 0 34.7771 0 34.7771C2.72546 34.6137 5.46016 34.6933 8.17132 35.0151C13.4093 35.5409 13.1599 39.6474 13.1599 39.6474C15.0022 39.1425 16.8798 38.7745 18.7771 38.5464C20.8922 38.4075 21.0419 40.6493 21.0419 40.6493L21.5707 44.4781C22.3736 43.6145 23.2591 42.8305 24.2146 42.1372C25.4463 41.157 27.0145 40.6942 28.5846 40.8477L25.8708 27.774Z" fill="#F06351"/>
</g>
</svg>

<svg viewBox="0 0 202 59" fill="none" xmlns="http://www.w3.org/2000/svg"><g clip-path="url(#a)"><path d="M59.74 23.8a25.42 25.42 0 0 0-8.03-10.37 25.63 25.63 0 0 0-35.72 4.57 25.33 25.33 0 0 0 4.35 35.54 25.63 25.63 0 0 0 12.1 5.18c-.58-2.07-1.17-4.36-1.69-6.8 1.5.98 3.1 1.83 4.75 2.54 0 0 .12 2.14.28 4.53 1.78.03 3.56-.13 5.32-.47a2.1 2.1 0 0 1 0-.75c.29-1.85 1.08-5.2 1.24-7.35a15.1 15.1 0 0 0 2.9-3.68l-.06.44c-.55 4.22-1.7 8.74-2.4 9.98-.22.42-.5.8-.83 1.15a25.65 25.65 0 0 0 16.93-13.16 25.32 25.32 0 0 0 .86-21.34Zm-1.46 3.77c-.44.42-1.35.71-1.5-.58-.15-1.29-.19-2.2-.19-2.2s-1.93-3.4-2.64-3.43c-.72-.04-5.82 3.44-7.17 4.96-1.16 1.28-1.4 1.19-1.4 3.44 0 1.7.23 8.1.1 13l-8.13 2.15c-2.55.73-5.15 1.3-7.78 1.71l-1-5.78h-.14l-2.56-13.07s-3.8-1.42-5.2-1.81a3.77 3.77 0 0 0-3.99.62 5.03 5.03 0 0 0-1.72 3.82c.2.46.37.95.47 1.44.05.48-1.2.43-2 .43-.79 0-.9-1.43-.28-3.1a22.1 22.1 0 0 1 1.82-3.72 11.78 11.78 0 0 1 2.06-2.86s.14-.34 1.25-.24c1.1.1 7.26.42 7.26.42l.05-2.25c6.7-.92 13.44-1.36 20.2-1.33v1.82a22.58 22.58 0 0 1 8.12-1.98.91.91 0 0 1 .77.38c.33.43 2.4 2.98 2.64 3.34a27.6 27.6 0 0 1 1.82 2.98 6.17 6.17 0 0 1-.86 1.83Z" fill="#FDC305"/><path d="m56.33 21.5 1 1.27a27.6 27.6 0 0 1 1.82 2.98 6.17 6.17 0 0 1-.85 1.77c-.44.42-1.35.71-1.5-.58-.15-1.29-.2-2.14-.2-2.14s-1.94-3.4-2.65-3.44c-.72-.04-5.82 3.44-7.17 4.96-1.16 1.28-1.4 1.19-1.4 3.44 0 1.49.18 6.6.14 11.14 1.8.2 4.46.7 5.25 1.86 0 0-.29-7.12 7.8-3.39 0 0 .28-9.71 11.43-7.22a43.58 43.58 0 0 0-13.67-10.65Zm-10.5-2.3c.04-5.5-.43-11-1.4-16.4 0 0-.15-1.3-.87-.24-.6 1.26-1 2.6-1.2 3.97a71.13 71.13 0 0 0-12.79.33c-.82-2.72-2.21-3.96-2.88-3.64-.67.33-.75 3.26-.75 3.26l-.33 14.04c6.7-.92 13.45-1.36 20.22-1.33Z" fill="#F06351"/><path d="M45.25 46.74c.13-1.06.2-2.47.24-4.03l-8.14 2.16a64.15 64.15 0 0 1-7.78 1.75l1.11 4.96c0 .11 0 .22.07.33 1.5.97 3.1 1.82 4.75 2.53a42.36 42.36 0 0 0 6.86-4.1v.06a15.11 15.11 0 0 0 2.89-3.66Z" fill="#E55645"/><path d="M31.93 16.09c-.05-.1 1 .67 1.4.91.41.24.61.42.61.59 0 .17-.26.33-.62.33s-.91-.11-1-.25c-.07-.14.6 0 .94 0h.3a8.04 8.04 0 0 1-1.63-1.58Zm7.48.11s-1 1.27-1.09 1.33c-.09.06-.17.33.2.29.4-.07.81-.16 1.2-.28.12-.06.08-.2-.11-.18-.19.02-.68.05-1 .1l.85-1.25s.03-.12-.05-.01Zm-3.13 6.06c.46-.2.84-.55 1.08-1 .28-.65 0-.9-.43-.99-.6-.1-1.23.02-1.75.34-.39.37-.34.73 0 1 .34.26.7.48 1.1.65Z" fill="#000"/><path d="M35.92 23.5c-.12.23-.27.44-.46.6-.29.23-.63.36-1 .38-.55.05-1.1-.1-1.54-.44a2 2 0 0 1-.52-.44 1 1 0 0 0-.36-.25s.74 4.08 2.56 4.73c1.82.66 2.16-.75 2.2-1.13a5.56 5.56 0 0 0-.81-3.21c0-.3-.02-.1-.07-.23Z" fill="#F06351"/><path d="M34.22 24.64a3.5 3.5 0 0 1-2.34-1.42.15.15 0 0 1 0-.2.14.14 0 0 1 .1-.04.14.14 0 0 1 .1.04 3.2 3.2 0 0 0 2.1 1.3 2.11 2.11 0 0 0 1.64-.99l.14-.19.1.22s.38.75 1 .8c.61.03 1.05-.42 1.62-1.29a.14.14 0 0 1 .24.16c-.66.97-1.3 1.44-1.89 1.4a1.55 1.55 0 0 1-1.11-.72 2.25 2.25 0 0 1-1.7.93Z" fill="#000"/><path d="M36.18 38a3.73 3.73 0 0 0 3.74-3.73 3.73 3.73 0 0 0-3.74-3.72 3.73 3.73 0 0 0-3.74 3.72 3.73 3.73 0 0 0 3.74 3.72Z" fill="#FDC305"/><path d="m41.14 31.25-3.13 1.3 1.15-5.59-7.48 9.68 3.12-1.3-1.15 5.6 7.49-9.7Zm-7.38 3.8 4.15-5.37-.8 3.97 1.99-.82-4.18 5.38.8-3.97-1.96.8Zm-1.39-1.46c.61 0 1.11-.5 1.11-1.11a1.11 1.11 0 1 0-2.23 0c0 .6.5 1.1 1.12 1.1Zm6.5 4.02c.44 0 .79-.35.79-.78a.79.79 0 0 0-.79-.78.79.79 0 0 0-.79.78c0 .43.36.78.8.78Zm.96-2.15a.35.35 0 1 0 0-.69c-.2 0-.35.15-.35.34 0 .2.16.35.35.35Z" fill="#111"/><path d="M45.78 20.99a57.14 57.14 0 0 0-5.08 5.17 31.74 31.74 0 0 1-5.3 4.86c-.22-.53-1.63-1.51-1.63-1.51s-3.13-2.13-5.19-3.8a31.74 31.74 0 0 1-3.13-2.98l-2-.11a22.57 22.57 0 0 0 11.98 8.76c.86-.13 3.27-1.85 5.08-3.25a57.36 57.36 0 0 0 5.98-5.86c.5-.59.89-1.26 1.14-1.98-1.14.37-1.85.7-1.85.7Z" fill="#F06351"/><path d="m65.07 3.47-8.44 9.37-1.22-1.98 8.13-10.86 1.53 3.47Zm-2.57 13.65 5.53-4.08-.77-3.7-5.4 4.77.65 3.01Zm-2.72 31.85 6.12 3.16 3-2.33-6.67-2.72-2.45 1.9Zm-57.83-43.05 3.06-3.33 9.27 8.93-1.22 2.26-11.11-7.86Zm5.41 10.23-4.69-3.1-2.4 3.83 5.15 2.38 1.94-3.11Zm6.52 35.98-4.54 3.32 2.8 3.55 4-3.99-2.26-2.88Z" fill="#FDC305"/><path d="M25.87 27.77s-3.8-1.42-5.2-1.81a3.77 3.77 0 0 0-3.99.62 5.03 5.03 0 0 0-1.72 3.82c.2.46.37.95.47 1.44.05.48-1.2.43-2 .43-.79 0-.9-1.43-.28-3.1a22.1 22.1 0 0 1 1.82-3.72c-5.44 2.82-14.97 9.33-14.97 9.33a44.6 44.6 0 0 1 8.17.24c5.24.52 4.99 4.63 4.99 4.63 1.84-.5 3.72-.88 5.62-1.1 2.11-.14 2.26 2.1 2.26 2.1l.53 3.83c.8-.87 1.69-1.65 2.64-2.34a6.07 6.07 0 0 1 4.37-1.3l-2.7-13.07Z" fill="#F06351"/><path d="M85.42 38.22a7.92 7.92 0 0 1-1.4-5.06v-7.32c-.13-1.8.36-3.6 1.38-5.1.93-1.17 2.52-1.75 4.76-1.74 2.25 0 3.77.52 4.56 1.53a6.43 6.43 0 0 1 1.33 4.38v1.71h-4.14v-1.86c0-.49-.05-.98-.13-1.46a1.62 1.62 0 0 0-.47-.93 1.58 1.58 0 0 0-1.16-.36c-.3-.04-.6 0-.87.14a1.4 1.4 0 0 0-.63.6 5.2 5.2 0 0 0-.34 2.14v9.28a4.5 4.5 0 0 0 .39 2.14 1.52 1.52 0 0 0 1.45.71 1.33 1.33 0 0 0 1.4-.72c.25-.68.35-1.4.32-2.13v-1.95h4.14v1.69a6.93 6.93 0 0 1-1.23 4.5c-.88 1.06-2.4 1.59-4.57 1.59-2.16 0-3.85-.59-4.79-1.78Zm16.28-18.94h4.76l4 20.48h-3.94l-.71-4.53h-3.33l-.8 4.5h-4.01l4.04-20.45Zm3.66 13.38-1.26-8.23-1.25 8.23h2.51Zm8.18-10.3h-3.25v-3.08h10.74v3.08h-3.2v17.37h-4.3l.01-17.37Z" fill="#111"/><path d="M129.46 19.28h8.15v2.13h-5.21v6.75h4.23v2.02h-4.23v7.5h5.26v2.05h-8.2v-20.45Zm10.57 0h2l6.01 13.58v-13.58h2.45v20.48h-1.88l-6.01-13.96v13.93h-2.48l-.1-20.45Zm13.69 0h8.14v2.13h-5.21v6.75h4.27v2.02h-4.23v7.5h5.23v2.05h-8.2v-20.45Zm10.55 0h4.23a7.16 7.16 0 0 1 4.68 1.28c1 .85 1.5 2.23 1.5 4.15 0 2.6-.87 4.2-2.6 4.77l3 10.25h-2.84l-2.76-9.6h-2.27v9.6h-2.94v-20.45Zm4.01 8.78c.97.09 1.93-.18 2.7-.74a3.46 3.46 0 0 0 .83-2.65 5.55 5.55 0 0 0-.3-1.95 1.83 1.83 0 0 0-1-1.05 4.89 4.89 0 0 0-2.05-.34h-1.29v6.77l1.11-.04Zm10.34 10.16a8.82 8.82 0 0 1-1.27-5.22v-6.82c-.03-1.32.14-2.64.5-3.9.3-.96.9-1.79 1.75-2.35a6.05 6.05 0 0 1 3.36-.82 5.4 5.4 0 0 1 4.19 1.44 6.69 6.69 0 0 1 1.28 4.51v.76h-2.75v-.63c.02-.76-.05-1.51-.18-2.26-.1-.48-.37-.9-.76-1.2a3.07 3.07 0 0 0-1.73-.4c-.65-.05-1.3.14-1.81.55-.42.38-.69.89-.77 1.44-.13.8-.19 1.61-.17 2.43v7.6a7.15 7.15 0 0 0 .59 3.36 2.83 2.83 0 0 0 2.26 1.03 2.9 2.9 0 0 0 2.22-1.11c.48-1.13.69-2.35.6-3.56v-1.44h-2.66v-2.02h5.31v10.12h-1.81l-.3-2.35a3.6 3.6 0 0 1-1.4 1.93 3.7 3.7 0 0 1-2.33.67 4.79 4.79 0 0 1-4.12-1.76Zm16.06-5.71-4.54-13.23h2.72l3.22 9.87 3.16-9.87h2.76l-4.5 13.23v7.22h-2.81l-.01-7.22Z" fill="#444"/></g><defs><clipPath id="a"><path fill="#fff" d="M0 0h202v59h-202z"/></clipPath></defs></svg>
